app/images/icons/realtime-icon.svg

<?xml version="1.0" encoding="UTF-8" standalone="no"?>
<svg width="76px" height="77px" viewBox="0 0 76 77" version="1.1" xmlns="http://www.w3.org/2000/svg" xmlns:xlink="http://www.w3.org/1999/xlink" xmlns:sketch="http://www.bohemiancoding.com/sketch/ns">
    <!-- Generator: Sketch 3.1 (8751) - http://www.bohemiancoding.com/sketch -->
    <title>realtime-icon</title>
    <desc>Created with Sketch.</desc>
    <defs></defs>
    <g id="Page-1" stroke="none" stroke-width="1" fill="none" fill-rule="evenodd" sketch:type="MSPage">
        <g id="realtime-icon" sketch:type="MSLayerGroup" fill="#0A0B09">
            <path d="M74.7600283,43.89 C74.1370775,43.5986667 73.4019955,43.8786 73.1029791,44.5106667 L71.0846185,48.9186667 C68.2564218,43.814 62.8865857,40.5333333 56.9810119,40.5333333 C50.1285529,40.5333333 43.9862578,44.9426 41.7062578,51.5026667 C41.4695365,52.1626 41.80593,52.8972667 42.4662578,53.124 C43.1016677,53.3646667 43.8242906,53.0112667 44.0485529,52.3513333 C45.9797004,46.7906667 51.1751103,43.0666667 56.9810119,43.0666667 C61.615766,43.0666667 65.8518316,45.448 68.3560939,49.248 L64.8301922,47.5772667 C64.2072414,47.272 63.4597004,47.5506667 63.1731431,48.184 C62.8865857,48.8173333 63.148225,49.5786 63.7711759,49.8686667 L71.6826513,53.618 L72.20593,52.4792667 L75.3705201,45.5759333 C75.6570775,44.9426 75.3829791,44.194 74.7600283,43.89" id="Fill-3251" sketch:type="MSShapeGroup"></path>
            <path d="M7.99122388,2.53333333 L57.8272894,2.53333333 C60.5807321,2.53333333 62.810896,4.80066667 62.810896,7.6 L62.810896,12.6666667 L3.00761732,12.6666667 L3.00761732,7.6 C3.00761732,4.80066667 5.23778125,2.53333333 7.99122388,2.53333333 L7.99122388,2.53333333 Z M31.663355,50.6666667 L7.99122388,50.6666667 C5.23778125,50.6666667 3.00761732,48.3866667 3.00761732,45.6 L3.00761732,15.2 L62.810896,15.2 L62.810896,30.4 C62.810896,31.0979333 63.3715517,31.6666667 64.0567976,31.6666667 C64.7420435,31.6666667 65.3026993,31.0979333 65.3026993,30.4 L65.3026993,7.6 C65.3026993,3.40733333 61.9512239,0 57.8272894,0 L7.99122388,0 C3.86728945,0 0.51581404,3.40733333 0.51581404,7.6 L0.51581404,45.6 C0.51581404,49.7939333 3.86728945,53.2 7.99122388,53.2 L31.663355,53.2 C32.3486009,53.2 32.9092567,52.63 32.9092567,51.9333333 C32.9092567,51.2366667 32.3486009,50.6666667 31.663355,50.6666667 L31.663355,50.6666667 Z" id="Fill-3252" sketch:type="MSShapeGroup"></path>
            <path d="M10.4830272,10.1333333 C11.853519,10.1333333 12.9748304,8.9946 12.9748304,7.6 C12.9748304,6.20666667 11.853519,5.06666667 10.4830272,5.06666667 C9.11253535,5.06666667 7.99122388,6.20666667 7.99122388,7.6 C7.99122388,8.9946 9.11253535,10.1333333 10.4830272,10.1333333" id="Fill-3253" sketch:type="MSShapeGroup"></path>
            <path d="M17.958437,10.1333333 C19.3289288,10.1333333 20.4502403,8.9946 20.4502403,7.6 C20.4502403,6.20666667 19.3289288,5.06666667 17.958437,5.06666667 C16.5879452,5.06666667 15.4666337,6.20666667 15.4666337,7.6 C15.4666337,8.9946 16.5879452,10.1333333 17.958437,10.1333333" id="Fill-3254" sketch:type="MSShapeGroup"></path>
            <path d="M25.4338468,10.1333333 C26.8043386,10.1333333 27.9256501,8.9946 27.9256501,7.6 C27.9256501,6.20666667 26.8043386,5.06666667 25.4338468,5.06666667 C24.063355,5.06666667 22.9420435,6.20666667 22.9420435,7.6 C22.9420435,8.9946 24.063355,10.1333333 25.4338468,10.1333333" id="Fill-3255" sketch:type="MSShapeGroup"></path>
            <path d="M70.7440272,61.2319333 C70.0712403,61.1166667 69.4233715,61.5853333 69.3112403,62.2693333 C68.2023879,68.9966 62.5210764,73.8846667 55.7932075,73.8846667 C49.9374698,73.8846667 44.8791092,70.1733333 42.9355026,64.7786 L47.2961584,66.842 C47.9191092,67.1333333 48.6666502,66.8673333 48.9532075,66.234 C49.2522239,65.6006667 48.9781256,64.8406667 48.3551748,64.5493333 L40.4561584,60.8 L36.7682895,68.8319333 C36.4692731,69.4652667 36.7433715,70.224 37.3663223,70.5153333 C37.5407485,70.604 37.7151748,70.642 37.889601,70.642 C38.3630436,70.642 38.8115682,70.3633333 39.0233715,69.9073333 L40.7676338,66.0959333 C43.1846829,72.2253333 49.0404207,76.418 55.7932075,76.418 C63.74206,76.418 70.4574698,70.642 71.7656666,62.6873333 C71.8777977,62.0033333 71.4292731,61.3459333 70.7440272,61.2319333" id="Fill-3256" sketch:type="MSShapeGroup"></path>
        </g>
    </g>
</svg>

<svg width="76" height="77" viewBox="0 0 76 77" xmlns="http://www.w3.org/2000/svg">
    <desc>
        Created with Sketch.
    </desc>
    <g fill="#0A0B09">
        <path d="M74.76 43.89c-.623-.29-1.358-.01-1.657.62l-2.018 4.41c-2.83-5.106-8.198-8.387-14.104-8.387-6.85 0-12.994 4.41-15.274 10.97-.236.66.1 1.394.76 1.62.636.242 1.358-.112 1.583-.772 1.93-5.56 7.125-9.283 12.93-9.283 4.636 0 8.872 2.38 11.376 6.18l-3.526-1.67c-.623-.305-1.37-.026-1.657.607-.286.633-.025 1.395.598 1.685l7.913 3.748.523-1.14 3.165-6.902c.287-.633.013-1.382-.61-1.686"/>
        <path d="M7.99 2.533h49.837c2.754 0 4.984 2.268 4.984 5.067v5.067H3.01V7.6c0-2.8 2.23-5.067 4.983-5.067zm23.673 48.134H7.99c-2.752 0-4.982-2.28-4.982-5.067V15.2H62.81v15.2c0 .698.562 1.267 1.247 1.267s1.246-.57 1.246-1.267V7.6c0-4.193-3.352-7.6-7.476-7.6H7.99C3.868 0 .517 3.407.517 7.6v38c0 4.194 3.35 7.6 7.475 7.6h23.673c.686 0 1.246-.57 1.246-1.267 0-.696-.56-1.266-1.247-1.266z"/>
        <path d="M10.483 10.133c1.37 0 2.492-1.138 2.492-2.533 0-1.393-1.12-2.533-2.492-2.533-1.37 0-2.492 1.14-2.492 2.533 0 1.395 1.123 2.533 2.493 2.533"/>
        <path d="M17.958 10.133c1.37 0 2.492-1.138 2.492-2.533 0-1.393-1.12-2.533-2.492-2.533-1.37 0-2.49 1.14-2.49 2.533 0 1.395 1.12 2.533 2.49 2.533"/>
        <path d="M25.434 10.133c1.37 0 2.492-1.138 2.492-2.533 0-1.393-1.122-2.533-2.492-2.533-1.37 0-2.492 1.14-2.492 2.533 0 1.395 1.12 2.533 2.492 2.533"/>
        <path d="M70.744 61.232c-.673-.115-1.32.353-1.433 1.037-1.108 6.727-6.79 11.615-13.517 11.615-5.856 0-10.914-3.712-12.857-9.106l4.36 2.062c.623.29 1.37.025 1.657-.608.3-.633.025-1.393-.598-1.685l-7.9-3.75-3.687 8.032c-.3.633-.025 1.392.598 1.683.175.09.35.127.524.127.473 0 .922-.28 1.133-.735l1.745-3.81c2.417 6.128 8.272 10.32 15.025 10.32 7.95 0 14.664-5.775 15.973-13.73.112-.684-.337-1.34-1.022-1.455"/>
    </g>
</svg>
